X:115
T:The 50's Frolic
M:C|
L:1/8
C:© Paul Gitlitz 2001
R:Swing
B:Hunters and Gatherers
K:G
"D7"zDED =FD^FD|"G6"G3G FG3|AG2GF2G2|"D7"F3 F EF2G-|GF2F E2F2|!
"Am7"E3DE3D|"D9"dD2DE2D2|1"G6"G3 "(Am7)"A-A2 "G6"B2:|2"G6"G8-|GDGA BAGF|!
|:"Am7"Ez2E A2B2|c4cBAG|"G6"Dz2D G2A2|B4BAGE|!
"D7"F3DF3F|dD2D E2D2|1"G6"G3 "(Am7)"A-A3 "G6"B-|BDGA BAGF:|2"G6"G8-|G|]
